X:1
T:Title
%%score { 1 | ( 2 3 ) }
L:1/8
M:6/8
K:D
V:1 treble nm="Grand Piano"
V:2 bass 
V:3 bass 
V:1
 z3 z2[Q:1/4=100] D | F2 F FEF | [FA]2 [FA] F2 D | [CE]2 [CE] [CA]2 [CG] |[M:5/8] F-F- F3 | %5
[M:1/8] D |[M:3/4] F2 FF E[A,DF] | [DFA]2 [DFA] [A,DF]2[K:bass] [F,D] | %8
 [A,CE]2[K:treble] [A,EG] [A,DF]2[K:bass] [G,CE] |[M:5/8] [F,D]-[F,D]- [F,D]3 | %10
[M:1/8][K:treble] [DFA] |[M:3/4] B2 B B2 B | [FA]2 [FA] [FA]2 [DF] | [CE]2 [CE] [CA]2 [EG] | %14
[M:5/8] [DF]-[DF]- [DF]3 |[M:1/8] [FA] |[M:3/4] B2 B B2 B | [FA]2 [FA] [FA]2 [DF] | %18
 [CE]2 [CE] [DF]2 [CE] |[M:5/8] D-D- D3 |] %20
V:2
 z3 z2 [D,F,] | [D,A,D]2 [D,A,D] DC[D,A,D] | [D,D]2 [D,D] [D,A,D]2 [D,F,] | %3
 [A,,A,]2 [A,,A,] [A,,A,]2 [A,,A,] |[M:5/8] [D,A,D]-[D,A,D]- [D,A,D]3 |[M:1/8] [D,F,] | %6
[M:3/4] [D,A,D]2 [D,A,D]D CD, | D,2 D, D,2 D, | A,,2 A,, A,,2 A,, |[M:5/8] D,-D,- D,3 |[M:1/8] D, | %11
[M:3/4][K:treble] [G,DG]2 [G,DG] [G,DG]2 [G,DG] | [D,D]2 [D,D] [D,D]2 [D,A,] | %13
 [A,,A,]2 [A,,A,] [A,,A,]2 [A,,A,] |[M:5/8] [D,A,]-[D,A,]- [D,A,]3 |[M:1/8] [D,D] | %16
[M:3/4][K:treble] [G,DG]2 [G,DG] [G,DG]2 [G,DG] | [D,D]2 [D,D] [D,D]2 [D,A,] | %18
 [A,,A,]2 [A,,A,] [A,,A,]2 [A,,G,] |[M:5/8] [D,F,]-[D,F,]- [D,F,]3 |] %20
V:3
 x6 | z3 .[D,A,]3 | x6 | x6 |[M:5/8] x5 |[M:1/8] x |[M:3/4] z2 z .[D,A,]3 | x6 | x6 |[M:5/8] x5 | %10
[M:1/8] x |[M:3/4][K:treble] x6 | x6 | x6 |[M:5/8] x5 |[M:1/8] x |[M:3/4][K:treble] x6 | x6 | x6 | %19
[M:5/8] x5 |] %20

